X: 21494
T: Kick The World Before Me
R: slip jig
M: 9/8
K: Ddorian
e|f2 d ecA AcA|f2 d ecA d2 e|f2 d ecA AcA|fga gfe d2:|
|:e|f2 f faf ege|f2 f faf g2 e|f2 f faf ege|fed ecA d2:|

